X:1
T:Polska frn Vsterbotten
O:Vsterbotten
R:Polska
Z:Jonas Brunskog
M:3/4
L:1/8
K:Gm
D|:dd cc BB|A/B/A/F/ G3 D|G>A Bc dg|dc d4|
dd ff dd|cc ee d2|BB dd BB|A/B/A/F/ G3 D:|
|:G>A Bc/B/ AG|F/G/A/F/ G3D|G>A Bc dg|dc d4|
dd ff dd|cc ee d2|BB dd BB|[1 A/B/A/F/ G3 D:|[2 A/B/A/F/ G4|]
